common/src/main/resources/glyphs/plugins/python/propertyGetter.svg

<svg xmlns="http://www.w3.org/2000/svg" width="16" height="16" fill="#C792EA" data-big="true" viewBox="0 0 24 24"><path d="M5 9.5 7.5 14h-5zM3 4h4v4H3zm2 16a2 2 0 0 0 2-2 2 2 0 0 0-2-2 2 2 0 0 0-2 2 2 2 0 0 0 2 2M9 5v2h12V5zm0 14h12v-2H9zm0-6h12v-2H9z"/><path fill="#AED581" d="M19.5 12h-3V5.25l-2.625 2.625L12.06 6.06 18 .12l5.94 5.94-1.815 1.815L19.5 5.25z"/></svg>

<!--
  - The MIT License (MIT)
  -
  - Copyright (c) 2015-2024 Elior "Mallowigi" Boukhobza
  -
  - Permission is hereby granted, free of charge, to any person obtaining a copy
  - of this software and associated documentation files (the "Software"), to deal
  - in the Software without restriction, including without limitation the rights
  - to use, copy, modify, merge, publish, distribute, sublicense, and/or sell
  - copies of the Software, and to permit persons to whom the Software is
  - furnished to do so, subject to the following conditions:
  -
  - The above copyright notice and this permission notice shall be included in all
  - copies or substantial portions of the Software.
  -
  - THE SOFTWARE IS PROVIDED "AS IS", WITHOUT WARRANTY OF ANY KIND, EXPRESS OR
  - IMPLIED, INCLUDING BUT NOT LIMITED TO THE WARRANTIES OF MERCHANTABILITY,
  - FITNESS FOR A PARTICULAR PURPOSE AND NONINFRINGEMENT. IN NO EVENT SHALL THE
  - AUTHORS OR COPYRIGHT HOLDERS BE LIABLE FOR ANY CLAIM, DAMAGES OR OTHER
  - LIABILITY, WHETHER IN AN ACTION OF CONTRACT, TORT OR OTHERWISE, ARISING FROM,
  - OUT OF OR IN CONNECTION WITH THE SOFTWARE OR THE USE OR OTHER DEALINGS IN THE
  - SOFTWARE.
  -->


<svg data-big="true" xmlns="http://www.w3.org/2000/svg" version="1.1" width="16px" height="16px" viewBox="0 0 24 24"
     fill="#C792EA">
  <path
    d="M5,9.5L7.5,14H2.5L5,9.5M3,4H7V8H3V4M5,20A2,2 0 0,0 7,18A2,2 0 0,0 5,16A2,2 0 0,0 3,18A2,2 0 0,0 5,20M9,5V7H21V5H9M9,19H21V17H9V19M9,13H21V11H9V13Z"/>
  <path fill="#AED581" transform="scale(0.75) translate(12 -4)"
        d="M14,20H10V11L6.5,14.5L4.08,12.08L12,4.16L19.92,12.08L17.5,14.5L14,11V20Z"/>
</svg>
